X:32
T:The Teetotaller's Reel
O:Ireland
M:4/4
K:G
D2 | "G" G2 GF GABc | dBeB dBAG| "Em" BEED EFGA | "G" BGAF "D" GFED |
"G" G2 GF GABc | dBeB dBAG | "Em" BEED EFGA | "G" BG"D"AF "G"G2 :|
|: B2 | "Em" Beed e3f | geaf gfed | "D" Bdd^c d3e | fdaf gfed |
"Em" Beed e3f | geaf gfed | BEED EFGA | "G" BG"D"AF "G" G2 :|
%%topmargin 1.2 in
%%bottommargin 1.0 in
%%titlefont Times-Roman 24
%%composerspace 0
%%partsspace 0
%%writehistory 1
%%scale 0.7
%%maxshrink 1
%
%
